Suru++-Ubuntu/status/symbolic/network-cellular-umts-symbolic.svg

<svg width="16.000015" height="16" version="1.1" xmlns="http://www.w3.org/2000/svg" xmlns:osb="http://www.openswatchbook.org/uri/2009/osb">
 <g transform="translate(-753.00018,227.00006)" label="status">
  <path transform="translate(753.00018,-227.00006)" d="m2.7128906 2c-1.05789-0.0133-1.7679725 0.2242494-2.1328125 0.6621094-0.38305 0.4561-0.58007812 1.2042206-0.58007812 2.2441406v6.1875c0 1.03995 0.19702813 1.788031 0.58007812 2.244141 0.36484 0.43788 1.0748425 0.662109 2.1328125 0.662109h10.574218c1.05797 0 1.769926-0.224229 2.134766-0.662109 0.38305-0.45611 0.578125-1.204191 0.578125-2.244141v-6.1875c0-1.03992-0.195075-1.7880406-0.578125-2.2441406-0.36482-0.43786-1.076796-0.6621094-2.134766-0.6621094h-10.574218zm2.7871094 2.5h1v6h3v-6h1v6l-1 1h-3l-1-1v-6z" style="fill:#808080"/>
 </g>
</svg>

<?xml version="1.0" encoding="UTF-8" standalone="no"?>
<svg
   xmlns:osb="http://www.openswatchbook.org/uri/2009/osb"
   xmlns:dc="http://purl.org/dc/elements/1.1/"
   xmlns:cc="http://creativecommons.org/ns#"
   xmlns:rdf="http://www.w3.org/1999/02/22-rdf-syntax-ns#"
   xmlns:svg="http://www.w3.org/2000/svg"
   xmlns="http://www.w3.org/2000/svg"
   xmlns:sodipodi="http://sodipodi.sourceforge.net/DTD/sodipodi-0.dtd"
   xmlns:inkscape="http://www.inkscape.org/namespaces/inkscape"
   height="16"
   id="svg7384"
   version="1.1"
   width="16.000015"
   sodipodi:docname="network-cellular-umts-symbolic.svg"
   inkscape:version="0.92.2 (unknown)">
  <sodipodi:namedview
     pagecolor="#ffffff"
     bordercolor="#666666"
     borderopacity="1"
     objecttolerance="10"
     gridtolerance="10"
     guidetolerance="10"
     inkscape:pageopacity="0"
     inkscape:pageshadow="2"
     inkscape:window-width="1519"
     inkscape:window-height="945"
     id="namedview27"
     showgrid="true"
     inkscape:zoom="14.75"
     inkscape:cx="-4.1694839"
     inkscape:cy="8"
     inkscape:window-x="224"
     inkscape:window-y="90"
     inkscape:window-maximized="0"
     inkscape:current-layer="layer9">
    <inkscape:grid
       type="xygrid"
       id="grid821" />
  </sodipodi:namedview>
  <metadata
     id="metadata20854">
    <rdf:RDF>
      <cc:Work
         rdf:about="">
        <dc:title></dc:title>
        <dc:format>image/svg+xml</dc:format>
        <dc:type
           rdf:resource="http://purl.org/dc/dcmitype/StillImage" />
      </cc:Work>
    </rdf:RDF>
  </metadata>
  <defs
     id="defs7386">
    <linearGradient
       id="linearGradient5606"
       osb:paint="solid">
      <stop
         id="stop5608"
         offset="0"
         style="stop-color:#000000;stop-opacity:1;" />
    </linearGradient>
    <linearGradient
       id="linearGradient4526"
       osb:paint="solid">
      <stop
         id="stop4528"
         offset="0"
         style="stop-color:#ffffff;stop-opacity:1;" />
    </linearGradient>
  </defs>
  <g
     id="layer9"
     label="status"
     style="display:inline"
     transform="translate(-753.00018,227.00006)">
    <path
       style="font-style:normal;font-variant:normal;font-weight:normal;font-stretch:normal;font-size:15px;line-height:125%;font-family:Ubuntu;-inkscape-font-specification:Ubuntu;text-align:center;letter-spacing:0px;word-spacing:0px;writing-mode:lr-tb;text-anchor:middle;fill:#808080;fill-opacity:1;stroke:none;stroke-width:2"
       d="M 2.7128906 2 C 1.6550006 1.9867 0.94491812 2.2242494 0.58007812 2.6621094 C 0.19702812 3.1182094 0 3.86633 0 4.90625 L 0 11.09375 C 0 12.1337 0.19702813 12.881781 0.58007812 13.337891 C 0.94491812 13.775771 1.6549206 14 2.7128906 14 L 13.287109 14 C 14.345079 14 15.057035 13.775771 15.421875 13.337891 C 15.804925 12.881781 16 12.1337 16 11.09375 L 16 4.90625 C 16 3.86633 15.804925 3.1182094 15.421875 2.6621094 C 15.057055 2.2242494 14.345079 2 13.287109 2 L 2.7128906 2 z M 5.5 4.5 L 6.5 4.5 L 6.5 10.5 L 9.5 10.5 L 9.5 4.5 L 10.5 4.5 L 10.5 10.5 L 9.5 11.5 L 6.5 11.5 L 5.5 10.5 L 5.5 4.5 z "
       transform="translate(753.00018,-227.00006)"
       id="path6788" />
  </g>
  <g
     id="layer2"
     transform="translate(-511.99998,-139.99994)" />
  <g
     id="layer3"
     style="display:inline"
     transform="translate(-511.99998,-139.99994)" />
  <g
     id="g6217"
     transform="translate(-511.99998,-139.99994)" />
  <g
     id="layer1"
     transform="translate(-511.99998,-139.99994)" />
</svg>
